!!!COM: Balsamino, Simone
!!!CDT:
!!!PTL: Novellette a sei voci
!!!PPP: Venice
!!!PPR: Amadino
!!!PDT: 1594
!!!PUB-format:
!!!RISM: B 785
!!!OTL: E s'ella vuol che 'l tuo diletto sia
!!!AGN: Madrigal
!!!SCT: Tam2031121a
!!!SCA: Tam2031121a
!!!original-voices: 6
!!!extant-voices: 6
!!!complete: Y
!!!final: (F)F
**kern	**text	**kern	**text	**kern	**text	**kern	**text	**kern	**text	**kern	**text
*part6	*part6	*part5	*part5	*part4	*part4	*part3	*part3	*part2	*part2	*part1	*part1
*staff6	*staff6	*staff5	*staff5	*staff4	*staff4	*staff3	*staff3	*staff2	*staff2	*staff1	*staff1
*I"Basso	*	*I"Quinto	*	*I"Tenore	*	*I"Alto	*	*I"Sesto	*	*I"Canto	*
*I'B	*	*I'V	*	*I'T	*	*I'A	*	*I'VI	*	*I'C	*
*oclefF4	*	*oclefC4	*	*oclefC4	*	*oclefC3	*	*oclefC1	*	*oclefC1	*
*clefF4	*	*clefGv2	*	*clefGv2	*	*clefG2	*	*clefG2	*	*clefG2	*
*k[b-]	*	*k[b-]	*	*k[b-]	*	*k[b-]	*	*k[b-]	*	*k[b-]	*
*d:	*	*d:	*	*d:	*	*d:	*	*d:	*	*d:	*
*omet(C)	*	*omet(C)	*	*omet(C)	*	*omet(C)	*	*omet(C)	*	*omet(C)	*
*M4/2	*	*M4/2	*	*M4/2	*	*M4/2	*	*M4/2	*	*M4/2	*
=1	=1	=1	=1	=1	=1	=1	=1	=1	=1	=1	=1
!!LO:TX:a:t=[Quattordicesima parte]
0r	.	1r	.	0r	.	2c	E	2cc	E	0r	.
.	.	.	.	.	.	4d	s'el-	4b-y	s'el-	.	.
.	.	.	.	.	.	4f	-la	4a	-la	.	.
.	.	2c	E	.	.	4.e	vuol	4.g	vuol	.	.
.	.	.	.	.	.	8e	che'l	8g	che'l	.	.
.	.	4B-y	s'el-	.	.	4d	tuo	4g	tuo	.	.
.	.	4A	-la	.	.	4c	di-	4a	di-	.	.
=2	=2	=2	=2	=2	=2	=2	=2	=2	=2	=2	=2
0r	.	4G	vuol	0r	.	4d	-let-	4b-y	-let-	1r	.
.	.	4F	che'l	.	.	4f	-to	4a	-to	.	.
.	.	4.c	tuo	.	.	1e	si-	2g	si-	.	.
.	.	8c	di-	.	.	.	.	.	.	.	.
.	.	4c	-let-	.	.	.	.	2g	-a	2cc	E
.	.	4c	-to	.	.	.	.	.	.	.	.
.	.	2G	si-	.	.	2d	-a	2r	.	4b-y	s'el-
.	.	.	.	.	.	.	.	.	.	4a	-la
=3	=3	=3	=3	=3	=3	=3	=3	=3	=3	=3	=3
2C	E	2.G	-a,	2e-X	E	0r	.	0r	.	4.g	vuol
.	.	.	.	.	.	.	.	.	.	8g	che'l
4BB-y	s'el-	.	.	4d	s'el-	.	.	.	.	4g	tuo
4AA	-la	4C	che'l	4c	-la	.	.	.	.	4a	di-
4GG	vuol	4D	tuo	4B-y	vuol	.	.	.	.	4b-y	-let-
4FF	che'l	4F	di-	4c	che'l	.	.	.	.	4a	-to
4.C	tuo	4E	-let-	4.c	tuo	.	.	.	.	2g	si-
.	.	4E	-to	.	.	.	.	.	.	.	.
8C	di-	.	.	8c	di-	.	.	.	.	.	.
=4	=4	=4	=4	=4	=4	=4	=4	=4	=4	=4	=4
4C	-let-	2E	si-	4c	-let-	1e	Tuo	2r	.	2g	-a
4C	-to	.	.	4c	-to	.	.	.	.	.	.
2C	si-	2E	-a	2.c	si-	.	.	2g	Tuo	2r	.
2FF	-a	2r	.	.	.	8fL	fur-	8aL	fur-	1r	.
.	.	.	.	.	.	8e	.	8g	.	.	.
.	.	.	.	4d	-a,	8d	.	8f	.	.	.
.	.	.	.	.	.	8cJ	.	8eJ	.	.	.
2GG	Tuo	2D	Tuo	2G	si-	2B-y	.	2d	.	.	.
=5	=5	=5	=5	=5	=5	=5	=5	=5	=5	=5	=5
8DL	fur-	8FL	fur-	2A	-a	4A	-to,	2d	-to	2r	.
8C	.	8E	.	.	.	.	.	.	.	.	.
8BB-y	.	8D	.	.	.	4d	Tuo	.	.	.	.
8AAJ	.	8CJ	.	.	.	.	.	.	.	.	.
2GG	.	4D	.	2B-y	Tuo	4.d	fur-	2r	.	2g	Tuo
.	.	4D	-to,	.	.	.	.	.	.	.	.
.	.	.	.	.	.	8e	.	.	.	.	.
2FF	-to,	2r	.	8cL	fur-	8fL	.	1r	.	8aL	fur-
.	.	.	.	8B-y	.	8e	.	.	.	8g	.
.	.	.	.	8A	.	8d	.	.	.	8f	.
.	.	.	.	8GJ	.	8cJ	.	.	.	8eJ	.
2BB-y	Tuo	2D	Tuo	2F	.	2B-y	.	.	.	2d	.
=6	=6	=6	=6	=6	=6	=6	=6	=6	=6	=6	=6
8DL	fur-	8FL	fur-	4F	-to,	4A	-to	2r	.	2d	-to
8C	.	8E	.	.	.	.	.	.	.	.	.
8BB-y	.	8D	.	4F	Tuo	4d	o	.	.	.	.
8AAJ	.	8CJ	.	.	.	.	.	.	.	.	.
2GG	.	2D	.	4B-y	fur-	4d	tua	2g	o	2r	.
.	.	.	.	8AL	.	4d	ra-	.	.	.	.
.	.	.	.	8GJ	.	.	.	.	.	.	.
2FF	-to	4A	-to,	[1F	.	4f	-pi-	2cc	tua	1r	.
.	.	4A	Tuo	.	.	8eL	.	.	.	.	.
.	.	.	.	.	.	8dJ	.	.	.	.	.
2FF	o	[2A	fur-	.	.	8cL	.	2cc	ra-	.	.
.	.	.	.	.	.	8B-y	.	.	.	.	.
.	.	.	.	.	.	8A	.	.	.	.	.
.	.	.	.	.	.	8GJ	.	.	.	.	.
=7	=7	=7	=7	=7	=7	=7	=7	=7	=7	=7	=7
2F	tua	2A]	.	2F]	.	2F	.	4cc	-pi-	0r	.
.	.	.	.	.	.	.	.	8b-yL	.	.	.
.	.	.	.	.	.	.	.	8aJ	.	.	.
2E	ra-	2E	-to	2G	-to	1c	-na,	8gL	.	.	.
.	.	.	.	.	.	.	.	8f	.	.	.
.	.	.	.	.	.	.	.	8e	.	.	.
.	.	.	.	.	.	.	.	8dJ	.	.	.
4F	-pi-	2r	.	4A	o	.	.	2c	.	.	.
8EL	.	.	.	2G	tua	.	.	.	.	.	.
8DJ	.	.	.	.	.	.	.	.	.	.	.
8CL	.	2E	o	.	.	2e	o	2c	-na,	.	.
8BB-y	.	.	.	.	.	.	.	.	.	.	.
8AA	.	.	.	4A	ra-	.	.	.	.	.	.
8GGJ	.	.	.	.	.	.	.	.	.	.	.
=8	=8	=8	=8	=8	=8	=8	=8	=8	=8	=8	=8
2FF	.	2A	tua	4c	-pi-	2f	tua	0r	.	2r	.
.	.	.	.	8B-yL	.	.	.	.	.	.	.
.	.	.	.	8AJ	.	.	.	.	.	.	.
2GG	-na,	2BnX	ra-	8GL	.	2d	ra-	.	.	2g	o
.	.	.	.	8F	.	.	.	.	.	.	.
.	.	.	.	8E	.	.	.	.	.	.	.
.	.	.	.	8DJ	.	.	.	.	.	.	.
2r	.	4c	-pi-	1C	.	2e	-pi-	.	.	2cc	tua
.	.	8BniL	.	.	.	.	.	.	.	.	.
.	.	8AJ	.	.	.	.	.	.	.	.	.
4r	.	8GL	.	.	.	4e	-na,	.	.	2cc	ra-
.	.	8F	.	.	.	.	.	.	.	.	.
4G	o	8E	.	.	.	4e	o	.	.	.	.
.	.	8DJ	.	.	.	.	.	.	.	.	.
=9	=9	=9	=9	=9	=9	=9	=9	=9	=9	=9	=9
2G	tua	2C	.	1c	-na,	2e	tua	1r	.	4cc	-pi-
.	.	.	.	.	.	.	.	.	.	8b-yL	.
.	.	.	.	.	.	.	.	.	.	8aJ	.
2E	ra-	2C	-na,	.	.	2e	ra-	.	.	8gL	.
.	.	.	.	.	.	.	.	.	.	8f	.
.	.	.	.	.	.	.	.	.	.	8e	.
.	.	.	.	.	.	.	.	.	.	8dJ	.
4F	-pi-	2r	.	1r	.	4a	-pi-	2r	.	2c	.
8EL	.	.	.	.	.	8gL	.	.	.	.	.
8DJ	.	.	.	.	.	8fJ	.	.	.	.	.
8CL	.	4G	e	.	.	8eL	.	4g	e	2c	-na,
8BB-y	.	.	.	.	.	8d	.	.	.	.	.
8AA	.	[4A	non	.	.	8c	.	[4cc	non	.	.
8GGJ	.	.	.	.	.	8B-yJ	.	.	.	.	.
=10	=10	=10	=10	=10	=10	=10	=10	=10	=10	=10	=10
1FF	.	4A]	.	2c	e	2A	.	4cc]	.	1r	.
.	.	4G	suo	.	.	.	.	4b-y	suo	.	.
.	.	1F	do-	1c	non	2A	-na,	2a	do-	.	.
2FF	-na,	.	.	.	.	2c	e	2g	-no	2r	.
[2C	e	2E	-no	2c	suo	[2e	non	2r	.	4g	e
.	.	.	.	.	.	.	.	.	.	[4cc	non
=11	=11	=11	=11	=11	=11	=11	=11	=11	=11	=11	=11
2C]	.	0r	.	2G	do-	4e]	.	1r	.	4cc]	.
.	.	.	.	.	.	4d	suo	.	.	4b-y	suo
2.F	non	.	.	2A	-no	2c	do-	.	.	2a	do-
.	.	.	.	1r	.	2c	-no	2r	.	2g	-no
4E	suo	.	.	.	.	.	.	.	.	.	.
2D	do-	.	.	.	.	2f	Né	2a	Né	2r	.
=12	=12	=12	=12	=12	=12	=12	=12	=12	=12	=12	=12
4C	-no	2G	Né	2r	.	4e	sua	4cc	sua	1r	.
4GG	Né	.	.	.	.	4g	mer-	4b-y	mer-	.	.
4D	sua	4A	sua	2F	Né	1f	-ce-	2a	-ce-	.	.
4C	mer-	4c	mer-	.	.	.	.	.	.	.	.
2BB-y	-ce-	2d	-ce-	[2.F	sua	.	.	2b-y	-de,	2r	.
4FF	-de,	4c	-de,	.	.	4f	-de,	2r	.	2a	Né
4FF	Né	4c	Né	4F]	mer-	4f	Né	.	.	.	.
=13	=13	=13	=13	=13	=13	=13	=13	=13	=13	=13	=13
4F	sua	4A	sua	1F	-ce-	4f	sua	1r	.	4cc	sua
4BB-y	mer-	4B-y	mer-	.	.	4f	mer-	.	.	4b-y	mer-
2F	-ce-	2c	-ce-	.	.	2f	-ce-	.	.	2a	-ce-
2BB-y	-de,	2d	-de,	2F	-de,	2f	-de,	2r	.	2b-y	-de,
2r	.	2G	a	2r	.	2d	a	2b-y	a	2r	.
=14	=14	=14	=14	=14	=14	=14	=14	=14	=14	=14	=14
0r	.	2A	te,	0r	.	2e	te,	2cc	te,	0r	.
.	.	4.d	fol-	.	.	4.f	fol-	4.a	fol-	.	.
.	.	8d	-le,	.	.	8f	-le,	8a	-le,	.	.
.	.	2d	fol-	.	.	2f	fol-	2a	fol-	.	.
.	.	4d	-le,	.	.	4f	-le,	4a	-le,	.	.
.	.	4d	ch'im-	.	.	4f	ch'im-	4dd	ch'im-	.	.
=15	=15	=15	=15	=15	=15	=15	=15	=15	=15	=15	=15
0r	.	4A	-por-	0r	.	4e	-por-	4cc	-por-	0r	.
.	.	8A	-ta,	.	.	8e	-ta,	8cc	-ta,	.	.
.	.	8c	ch'im-	.	.	8e	ch'im-	8cc	ch'im-	.	.
.	.	4G	-por-	.	.	4d	-por-	4b-y	-por-	.	.
.	.	8G	-ta,	.	.	8d	-ta,	8b-y	-ta,	.	.
.	.	8B-y	ch'im-	.	.	8d	ch'im-	8b-y	ch'im-	.	.
.	.	2F	-por-	.	.	2c	-por-	2a	-por-	.	.
.	.	2F	-ta	.	.	2c	-ta	2a	-ta	.	.
=16	=16	=16	=16	=16	=16	=16	=16	=16	=16	=16	=16
0r	.	4F	Più	0r	.	4f	Più	4a	Più	0r	.
.	.	4G	l'un	.	.	4d	l'un	4b-y	l'un	.	.
.	.	2.F	mo-	.	.	2.a	mo-	2.cc	mo-	.	.
.	.	8G	-do	.	.	8g	-do	8b-y	-do	.	.
.	.	8A	che	.	.	8f	che	8a	che	.	.
.	.	2c	l'al-	.	.	2e	l'al-	2g	l'al-	.	.
=17	=17	=17	=17	=17	=17	=17	=17	=17	=17	=17	=17
2r	.	1F	-tro?	2r	.	1f	-tro?	1a	-tro?	2r	.
2F	E	.	.	2c	E	.	.	.	.	2a	E
4F	chi	1r	.	4A	chi	1r	.	1r	.	4cc	chi
4G	m'ac-	.	.	4G	m'ac-	.	.	.	.	4b-y	m'ac-
2D	-cer-	.	.	2F	-cer-	.	.	.	.	2a	-cer-
=18	=18	=18	=18	=18	=18	=18	=18	=18	=18	=18	=18
4D	-ta	0r	.	4F	-ta	0r	.	0r	.	4a	-ta
4E	Che il	.	.	4c	Che il	.	.	.	.	4g	Che il
4.F	suo	.	.	4.c	suo	.	.	.	.	4.a	suo
8BB-y	de-	.	.	8B-y	de-	.	.	.	.	8b-y	de-
4F	-sir	.	.	4A	-sir	.	.	.	.	4cc	-sir
4F	sia	.	.	4c	sia	.	.	.	.	4a	sia
2E	ta-	.	.	[2c	ta-	.	.	.	.	2g	ta-
=19	=19	=19	=19	=19	=19	=19	=19	=19	=19	=19	=19
1F	-le?	1r	.	2c]	.	1r	.	1r	.	1a	-le?
.	.	.	.	2c	-la?	.	.	.	.	.	.
2BB-y	Oh	2F	Oh	2B-y	Oh	2f	Oh	2dd	Oh	2b-y	Oh
4FF	men-	4F	men-	4c	men-	4f	men-	4cc	men-	4a	men-
4FF	-te-	4F	-te-	4c	-te-	4f	-te-	4cc	-te-	4a	-te-
=20	=20	=20	=20	=20	=20	=20	=20	=20	=20	=20	=20
2FF	-cat-	2F	-cat-	2c	-cat-	2f	-cat-	2cc	-cat-	2a	-cat-
2FF	-to,	2F	-to,	2c	-to,	2f	-to,	2cc	-to,	2a	-to,
2BB-y	Oh	2F	Oh	2B-y	Oh	2f	Oh	2dd	Oh	2b-y	Oh
4FF	men-	4F	men-	4c	men-	4f	men-	4cc	men-	4a	men-
4FF	-te-	4F	-te-	4c	-te-	4f	-te-	4cc	-te-	4a	-te-
=21	=21	=21	=21	=21	=21	=21	=21	=21	=21	=21	=21
1FF	-cat-	2F	-cat-	2c	-cat-	2f	-cat-	2cc	-cat-	2a	-cat-
.	.	4F	-to!	2.c	-to!	2.f	-to!	4cc	-to!	2.a	-to!
.	.	4F	A	.	.	.	.	4a	A	.	.
1FF	-to!	2A	te,	.	.	.	.	2cc	te,	.	.
.	.	.	.	4F	A	4c	A	.	.	4a	A
.	.	4r	.	2A	te,	4f	te,	4r	.	2cc	te,
.	.	4F	a	.	.	4f	a	4a	a	.	.
=22	=22	=22	=22	=22	=22	=22	=22	=22	=22	=22	=22
2r	.	2A	te,	4r	.	4e	te,	2cc	te,	4r	.
.	.	.	.	4F	a	4c	a	.	.	4a	a
4r	.	2F	a	4c	te,	1f	te,	4.a	fol-	2cc	te,
4F	A	.	.	2A	fol-	.	.	.	.	.	.
.	.	.	.	.	.	.	.	8a	-le,	.	.
4F	te,	4c	te,	.	.	.	.	2a	fol-	1r	.
4D	a	2d	fol-	4A	-le,	.	.	.	.	.	.
2F	te,	.	.	2A	fol-	4.f	fol-	2a	-le,	.	.
.	.	4c	-le,	.	.	.	.	.	.	.	.
.	.	.	.	.	.	8f	-le,	.	.	.	.
=23	=23	=23	=23	=23	=23	=23	=23	=23	=23	=23	=23
4.D	fol-	2d	fol-	1A	-le,	2f	fol-	0r	.	4.a	fol-
8D	-le,	.	.	.	.	.	.	.	.	8a	-le,
2D	fol-	2d	-le,	.	.	2.f	-le,	.	.	2a	fol-
4D	-le,	1r	.	4r	.	.	.	.	.	4a	-le,
4A	ch'im-	.	.	4c	ch'im-	4f	ch'im-	.	.	4a	ch'im-
4E	-por-	.	.	4c	-por-	4e	-por-	.	.	4g	-por-
8E	-ta,	.	.	8c	-ta,	8e	-ta,	.	.	8g	-ta,
8G	ch'im-	.	.	8B-y	ch'im-	8d	ch'im-	.	.	8g	ch'im-
=24	=24	=24	=24	=24	=24	=24	=24	=24	=24	=24	=24
4D	-por-	1r	.	4A	-por-	4d	-por-	1r	.	4f	-por-
8D	-ta,	.	.	8A	-ta,	8d	-ta,	.	.	8f	-ta,
8F	ch'im-	.	.	8A	ch'im-	8c	ch'im-	.	.	8f	ch'im-
4C	-por-	.	.	2G	-por-	1c	-por-	.	.	4e	-por-
4C	-ta	.	.	.	.	.	.	.	.	4e	-ta
1r	.	2r	.	2F	-ta	.	.	4f	Più	1r	.
.	.	.	.	.	.	.	.	4f	l'un	.	.
.	.	4F	Più	2r	.	2c	-ta	8fL	mo-	.	.
.	.	.	.	.	.	.	.	8e	.	.	.
.	.	4F	l'un	.	.	.	.	8f	.	.	.
.	.	.	.	.	.	.	.	8gJ	.	.	.
=25	=25	=25	=25	=25	=25	=25	=25	=25	=25	=25	=25
2r	.	8FL	mo-	0r	.	1r	.	8aL	.	4f	Più
.	.	8E	.	.	.	.	.	8g	.	.	.
.	.	8F	.	.	.	.	.	8a	.	4f	l'un
.	.	8GJ	.	.	.	.	.	8b-yJ	.	.	.
1FF	Più	8AL	.	.	.	.	.	1cc	.	8fL	mo-
.	.	8G	.	.	.	.	.	.	.	8e	.
.	.	8A	.	.	.	.	.	.	.	8f	.
.	.	8B-yJ	.	.	.	.	.	.	.	8gJ	.
.	.	2c	.	.	.	2.A	Più	.	.	8aL	.
.	.	.	.	.	.	.	.	.	.	8g	.
.	.	.	.	.	.	.	.	.	.	8a	.
.	.	.	.	.	.	.	.	.	.	8b-yJ	.
2FF	l'un	2c	-do	.	.	.	.	2a	-do	2cc	.
.	.	.	.	.	.	4A	l'un	.	.	.	.
=26	=26	=26	=26	=26	=26	=26	=26	=26	=26	=26	=26
8BB-yL	mo-	1r	.	4F	Più	8dL	mo-	2r	.	1dd	-do
8AA	.	.	.	.	.	8c	.	.	.	.	.
8BB-y	.	.	.	4F	l'un	8d	.	.	.	.	.
8CJ	.	.	.	.	.	8eJ	.	.	.	.	.
8DL	.	.	.	8FL	mo-	4f	.	2a	che	.	.
8C	.	.	.	8E	.	.	.	.	.	.	.
8D	.	.	.	8F	.	4f	-do	.	.	.	.
8EJ	.	.	.	8GJ	.	.	.	.	.	.	.
1F	.	2c	che	8AL	.	2r	.	8aL	l'al-	[1cc	che
.	.	.	.	8G	.	.	.	8b-y	.	.	.
.	.	.	.	8A	.	.	.	8a	.	.	.
.	.	.	.	8B-yJ	.	.	.	8gJ	.	.	.
.	.	8AL	l'al-	2c	.	4r	.	8fL	.	.	.
.	.	8B-y	.	.	.	.	.	8g	.	.	.
.	.	8A	.	.	.	4c	che	8f	.	.	.
.	.	8GJ	.	.	.	.	.	8eJ	.	.	.
=27	=27	=27	=27	=27	=27	=27	=27	=27	=27	=27	=27
1BB-y	-do,	8FL	.	2B-y	-do	8dL	l'al-	2f	.	2cc]	.
.	.	8G	.	.	.	8e	.	.	.	.	.
.	.	8F	.	.	.	8d	.	.	.	.	.
.	.	8EJ	.	.	.	8cJ	.	.	.	.	.
.	.	2D	.	2f	che	8B-yL	.	2d	-tro,	8ddL	l'al-
.	.	.	.	.	.	8c	.	.	.	8ee	.
.	.	.	.	.	.	8B-y	.	.	.	8dd	.
.	.	.	.	.	.	8AJ	.	.	.	8ccJ	.
2r	.	2G	-tro,	8dL	l'al-	2B-y	.	1r	.	8b-yL	.
.	.	.	.	8e	.	.	.	.	.	8cc	.
.	.	.	.	8d	.	.	.	.	.	8b-y	.
.	.	.	.	8cJ	.	.	.	.	.	8aJ	.
2GG	l'un	2G	che	8B-yL	.	2d	-tro,	.	.	2g	.
.	.	.	.	8c	.	.	.	.	.	.	.
.	.	.	.	8B-y	.	.	.	.	.	.	.
.	.	.	.	8AJ	.	.	.	.	.	.	.
=28	=28	=28	=28	=28	=28	=28	=28	=28	=28	=28	=28
2GG	mo-	8dL	l'al-	2G	.	1r	.	2r	.	2b-y	-tro,
.	.	8e	.	.	.	.	.	.	.	.	.
.	.	8d	.	.	.	.	.	.	.	.	.
.	.	8cJ	.	.	.	.	.	.	.	.	.
2GG	-do	8B-yL	.	2G	-tro,	.	.	2dd	che	2g	che
.	.	8c	.	.	.	.	.	.	.	.	.
.	.	8B-y	.	.	.	.	.	.	.	.	.
.	.	8AJ	.	.	.	.	.	.	.	.	.
4r	.	2G	.	1r	.	1d	che	8ddL	l'al-	2g	l'al-
.	.	.	.	.	.	.	.	8ee	.	.	.
4G	che	.	.	.	.	.	.	8dd	.	.	.
.	.	.	.	.	.	.	.	8ccJ	.	.	.
8GL	l'al-	4B-y	-tro,	.	.	.	.	8b-yL	.	2g	-tro?
8A	.	.	.	.	.	.	.	8cc	.	.	.
8G	.	4B-y	che	.	.	.	.	8b-y	.	.	.
8FJ	.	.	.	.	.	.	.	8aJ	.	.	.
=29	=29	=29	=29	=29	=29	=29	=29	=29	=29	=29	=29
8EL	.	1c	l'al-	2C	che	1e	l'al-	1g	.	1r	.
8F	.	.	.	.	.	.	.	.	.	.	.
8E	.	.	.	.	.	.	.	.	.	.	.
8DJ	.	.	.	.	.	.	.	.	.	.	.
2C	.	.	.	2G	l'al-	.	.	.	.	.	.
1FF	-tro?	2c	-tro?	2F	-tro?	2f	-tro?	1a	-tro?	2r	.
.	.	2F	E	2c	E	2f	E	.	.	2a	E
=30	=30	=30	=30	=30	=30	=30	=30	=30	=30	=30	=30
0r	.	4F	chi	4A	chi	4a	chi	0r	.	4cc	chi
.	.	4G	m'ac-	4B-y	m'ac-	4g	m'ac-	.	.	4b-y	m'ac-
.	.	2A	-cer-	2c	-cer-	2e	-cer-	.	.	2a	-cer-
.	.	4A	-ta	4c	-ta	4e	-ta	.	.	4a	-ta
.	.	4B-y	Che il	4B-y	Che il	4d	Che il	.	.	4g	Che il
.	.	4.A	suo	4.c	suo	[4.e	suo	.	.	4.a	suo
.	.	8G	de-	8B-y	de-	8e]	de-	.	.	8b-y	de-
=31	=31	=31	=31	=31	=31	=31	=31	=31	=31	=31	=31
0r	.	4F	-sir	4A	-sir	4f	-sir	0r	.	4cc	-sir
.	.	4F	sia	4c	sia	4f	sia	.	.	4a	sia
.	.	2c	ta-	1c	ta-	2e	ta-	.	.	2g	ta-
.	.	1F	-le?	.	.	1f	-le?	.	.	1a	-le?
.	.	.	.	2c	-le?	.	.	.	.	.	.
=32	=32	=32	=32	=32	=32	=32	=32	=32	=32	=32	=32
1.BB-y	Oh	1.F	Oh	1.B-y	Oh	1.f	Oh	1.dd	Oh	1.b-y	Oh
4FF	men-	4F	men-	4c	men-	4f	men-	4cc	men-	4a	men-
4FF	-te-	4F	-te-	4c	-te-	4f	-te-	4cc	-te-	4a	-te-
=33	=33	=33	=33	=33	=33	=33	=33	=33	=33	=33	=33
2FF	-cat-	2F	-cat-	2c	-cat-	2f	-cat-	2cc	-cat-	2a	-cat-
4FF	-to,	4F	-to,	4c	-to,	4f	-to,	4cc	-to,	4a	-to,
4FF	Oh	4F	Oh	4c	Oh	4f	Oh	4cc	Oh	4a	Oh
2BB-y	men-	2F	men-	2B-y	men-	2f	men-	2dd	men-	2b-y	men-
2FF	-te-	2F	-te-	2c	-te-	2f	-te-	2cc	-te-	2a	-te-
=34	=34	=34	=34	=34	=34	=34	=34	=34	=34	=34	=34
1C	-cat-	1G	-cat-	1c	-cat-	1e	-cat-	1cc	-cat-	1g	-cat-
=35	=35	=35	=35	=35	=35	=35	=35	=35	=35	=35	=35
00FFl	-to!	00Fl	-to!	00cl	-to!	00fl	-to!	00ccl	-to!	00al	-to!
==	==	==	==	==	==	==	==	==	==	==	==
*-	*-	*-	*-	*-	*-	*-	*-	*-	*-	*-	*-
!!!system-decoration: [*]
!!!RDF**kern: i = editorial accidental
!!!RDF**kern: l = terminal long
!!!ENC: Emiliano Ricciardi
!!!END: 2018/12/28
!!!EED: Coluzzi, Seth
!!!EEV: 2019/01/21
!!!YEC: Copyright 2018 Emiliano Ricciardi, All Rights Reserved
!!!ONB: Translated from MusicXML on 2019/01/21
!!@@BEGIN:	VERSEDATA
!!@CATALOGNUM:	Tam2031121
!!@LAST_MODIFIED: 2020/07/12
!!@ACT:      II
!!@SCENE:    3
!!@VERSE:    1121
!!@TITLE:    E s'ella vuol che 'l tuo diletto sia
!!@MANUSRC:	A-Am, A-Au, A-Br, A-CM, A-F, A-Ub
!!@PRINTSRC:	A-1580D, A-1580M, A-1581B, A-1581B<sub>bis</sub>, A-1581M, A-1581M<sub>bis</sub>, A-1581O, A-1581V, A-1582B, A-1583M, A-1583V, A-1584A, A-1585C, A-1585V, A-1585V<sub>bis</sub>, A-1588B, A-1589M, A-1589V, A-1590Mb, A-1590Mv, A-1591M, A-1591W, A-1592B, A-1596B, A-1596M, A-1599Bf, A-1599Bp, A-1600R, A-1601Bf, A-1601Bp, A-1602B, A-1603Bf, A-1603Bv, A-1603Z, A-1605R, A-1606Z, A-1608D, A-1608DP, A-1609Bf, A-1609Bv, A-1609Z, A-1611D, A-1614GT, A-1617D, A-1618B, A-1619D, A-1619I, A-1620V, A-1622D, A-1623A, A-1624M, A-1624S, A-1624T, A-1625U, A-1628U, A-1632D, A-1634R
!!@@BEGIN:	VERSES
!!@ABOUTIT:	
!!@ABOUTEN:	
!!@EDITOR:	Solerti, Angelo
!!@EDITION_TITLE: Opere minori in versi di Torquato Tasso. Edizione critica sugli autografi e sulle antiche stampe.
!!@EDITION_LOC:	Bologna
!!@EDITION_PUB:	Zanichelli
!!@EDITION_DATE:  1895
!!@EDITION_VOL:	3
!!@EDITION_PAGE:
!!@TRANSLATOR:	Emiliano Ricciardi and Amyrose McCue Gill
!!@VERSE:	
!!	TIRSI: E s'ella vuol che 'l tuo diletto sia
!!	Tuo furto o tua rapina, e non suo dono
!!	Né sua mercede, a te, folle, che importa
!!	Più l'un modo che l'altro?
!!	AMINTA: E chi m'accerta
!!	Che 'l suo desir sia tale?
!!	TIRSI: O mentecatto!
!!@TVERSE:
!!	THYRSIS: And if she wants that your pleasure be
!!	Your theft or your entrapment [of her], and not her gift
!!	Nor her mercy, what, fool, to you
!!	Does one way or the other matter more?
!!	AMINTA: And who assures me
!!	That her desire be so?
!!	TIRSI: O imbecile!
!!@@END:		VERSES
!!@NEW_CRIT_ED:   Torquato Tasso, <i>Aminta. "Princeps."</i>, ed. Matteo Navone, vol. 9 of Commissione Nazionale per l'Edizione delle opere del Tasso. Studi e Testi (Alessandria: Edizioni dell'Orso, 2014).
!!@ATTRIBUTION_ABOUT:	
!!@DATING:	1573
!!@DEDICATEE:	
!!@COMMENTARY:
!!@@END:		VERSEDATA
!!@@BEGIN: SETTING
!!@CATALOGNUM:	Tam2031121a
!!@ACT:		II
!!@SCENE:		3
!!@VERSE:		1121
!!@TITLE:		E s'ella vuol che 'l tuo diletto sia
!!@COMPOSER:	Balsamino, Simone
!!@PRINCEPSTITLE:	Novellette a sei voci
!!@PRINCEPSLOC:	Venice
!!@NORMLOC:	Venice
!!@NORMPUB:	Amadino
!!@NORMPUBSHORT:	Amadino
!!@PRINCEPSPUB:	Amadino
!!@PRINCEPSYEAR:	1594
!!@PRINCEPSRISM:	B 785
!!@OVOICES:	6
!!@EXTANTVOICES:	6
!!@OMENSURATION:	C
!!@OCLEFS:	C1,C1,C3,C4,C4,F4
!!@OTIME:		
!!@OKEYSIG:	b-
!!@FINAL:		(F)F
!!@TIMPEDITOR:	Coluzzi, Seth
!!@PARTS:		1 of 1
!!@REPRINTS:	
!!@@END: SETTING
